packages/foundations/assets/icons/functional/images/date & time/clock_16.svg

<svg width="16" height="16" viewBox="0 0 16 16" fill="none" xmlns="http://www.w3.org/2000/svg">
<g clip-path="url(#clip0_185_676)">
<path fill-rule="evenodd" clip-rule="evenodd" d="M7.99998 1.60001C11.5278 1.60001 14.4 4.47217 14.4 8.00001C14.4 11.5278 11.5278 14.4 7.99998 14.4C4.47214 14.4 1.59998 11.5278 1.59998 8.00001C1.59998 4.47217 4.47214 1.60001 7.99998 1.60001ZM7.99998 3.20785C5.3463 3.20785 3.20782 5.34633 3.20782 8.00001C3.20782 10.6537 5.3463 12.7922 7.99998 12.7922C10.6537 12.7922 12.7921 10.6537 12.7921 8.00001C12.7921 5.34633 10.6537 3.20785 7.99998 3.20785ZM8.79606 4.80001V7.67217L10.5444 9.42049L9.42046 10.5444L7.2039 8.32785V4.80001H8.79606Z" fill="#1A1C1F"/>
</g>
<defs>
<clipPath id="clip0_185_676">
<rect width="16" height="16" fill="white"/>
</clipPath>
</defs>
</svg>

<svg xmlns="http://www.w3.org/2000/svg" width="16" height="16" fill="none"><g clip-path="url(#a)"><path fill="#1A1C1F" fill-rule="evenodd" d="M8 1.6c3.528 0 6.4 2.872 6.4 6.4s-2.872 6.4-6.4 6.4A6.41 6.41 0 0 1 1.6 8c0-3.528 2.872-6.4 6.4-6.4m0 1.608A4.783 4.783 0 0 0 3.208 8 4.783 4.783 0 0 0 8 12.792 4.783 4.783 0 0 0 12.792 8 4.783 4.783 0 0 0 8 3.208M8.796 4.8v2.872l1.748 1.748-1.124 1.124-2.216-2.216V4.8z" clip-rule="evenodd"/></g><defs><clipPath id="a"><path fill="#fff" d="M0 0h16v16H0z"/></clipPath></defs></svg>
